SVG/116-stage-tweet.svg

<?xml version="1.0" encoding="UTF-8" standalone="no"?>
<svg width="14px" height="14px" viewBox="0 0 14 14" version="1.1" xmlns="http://www.w3.org/2000/svg" xmlns:xlink="http://www.w3.org/1999/xlink">
    <!-- Generator: Sketch 3.8.2 (29753) - http://www.bohemiancoding.com/sketch -->
    <title>116-stage-tweet</title>
    <desc>Created with Sketch.</desc>
    <defs></defs>
    <g id="Page-1" stroke="none" stroke-width="1" fill="none" fill-rule="evenodd">
        <g id="116-stage-tweet" fill="#000000">
            <g id="Layer_2">
                <g id="Icons">
                    <path d="M11,0 C9.33,0 8,1 8,2.22 C8.01190835,2.75336565 8.25227013,3.25594029 8.66,3.6 L8.66,3.6 C8.65240833,3.91443227 8.58096096,4.22403757 8.45,4.51 L8.34,4.76 C8.27,4.93 8.34,5.16 8.61,5.09 L8.82,5.09 C9.31128346,4.93705463 9.76929576,4.69278141 10.17,4.37 C10.4289385,4.43061304 10.6940631,4.46081711 10.96,4.46 C12.59,4.46 13.96,3.46 13.96,2.25 C13.96,1.04 12.59,0 11,0 L11,0 Z M11,3.73 C10.9036056,3.74025996 10.8063944,3.74025996 10.71,3.73 C10.4668209,3.71839698 10.2270917,3.66774997 10,3.58 C9.78495657,3.75586221 9.55772074,3.91626398 9.32,4.06 L9.32,4.06 L9.32,4 C9.36475658,3.73185477 9.36475658,3.45814523 9.32,3.19 C9.12099164,3.06146198 8.95625213,2.88642625 8.84,2.68 C8.7484107,2.52564432 8.70005279,2.34948334 8.7,2.17 C8.71,1.4 9.74,0.7 11,0.7 C12.26,0.7 13.25,1.4 13.25,2.22 C13.25,3.04 12.18,3.73 11,3.73 L11,3.73 Z M7,5.81 C7.51848695,5.8093355 8.01422983,6.02283061 8.37,6.4 C8.79002958,6.31576395 9.19251996,6.16017943 9.56,5.94 C9.41023489,6.36096344 9.11617289,6.71525502 8.73,6.94 C9.10299662,6.8946714 9.46706264,6.79354195 9.81,6.64 C9.5597817,7.02748518 9.24128198,7.36631467 8.87,7.64 L8.87,7.88 C8.88075417,9.30217777 8.32054911,10.6692285 7.31488882,11.6748888 C6.30922852,12.6805491 4.94217777,13.2407542 3.52,13.23 C2.52168107,13.2266744 1.54444185,12.9425126 0.7,12.41 L1.15,12.41 C1.99433846,12.4117741 2.8148319,12.1300596 3.48,11.61 C2.67294318,11.596436 1.96461334,11.0692132 1.72,10.3 C1.83642588,10.3106004 1.95357412,10.3106004 2.07,10.3 C2.2356869,10.2981327 2.40041774,10.2745998 2.56,10.23 C1.71259156,10.050749 1.09732142,9.31572832 1.07,8.45 L1.07,8.45 C1.33113,8.59287612 1.62245395,8.67170495 1.92,8.68 C1.09373384,8.12807766 0.839641923,7.02847296 1.34,6.17 C2.28706778,7.3564559 3.694357,8.08373715 5.21,8.17 C5.0622457,7.61072896 5.18018184,7.01457527 5.52975222,6.55368918 C5.8793226,6.0928031 6.42160297,5.81850372 7,5.81 L7,5.81 Z M7,5.11 C5.73451533,5.13128277 4.67133095,6.06739332 4.49,7.32 C3.46327537,7.09316347 2.54344373,6.52575774 1.88,5.71 C1.74807976,5.54676217 1.54987561,5.45133054 1.34,5.45 L1.28,5.45 C1.05021294,5.46896632 0.844502828,5.59987275 0.73,5.8 C0.341564791,6.46824452 0.271885834,7.27505349 0.54,8 C0.43195424,8.1252083 0.371729152,8.28462765 0.37,8.45 C0.360434767,9.08747877 0.58453155,9.70641274 1,10.19 C0.968615175,10.3079479 0.968615175,10.4320521 1,10.55 C1.13868356,10.9848023 1.39064963,11.374832 1.73,11.68 C1.51963992,11.7252701 1.30517233,11.7487275 1.09,11.75 L0.72,11.75 L0.7,11.75 C0.411221074,11.7709585 0.165147779,11.9675431 0.0809334811,12.2445638 C-0.00328081698,12.5215845 0.0917459437,12.8218635 0.32,13 C1.28708369,13.6416046 2.41948908,13.9889682 3.58,14 C6.8937085,14 9.58,11.3137085 9.58,8 C9.8943204,7.73248104 10.1702523,7.42289894 10.4,7.08 C10.5866667,6.83111111 10.5866667,6.48888889 10.4,6.24 L10.29,6.13 C10.3557161,5.86353205 10.2596494,5.58324355 10.0442921,5.41311126 C9.82893478,5.24297897 9.53402235,5.214394 9.29,5.34 C9.08539374,5.46170306 8.86724203,5.55903229 8.64,5.63 C8.16855545,5.27485837 7.58994872,5.0913977 7,5.11 L7,5.11 Z" id="Shape"></path>
                </g>
            </g>
        </g>
    </g>
</svg>

<svg xmlns="http://www.w3.org/2000/svg" viewBox="0 0 13.91 13.96"><title>Asset 4</title><g id="Layer_2" data-name="Layer 2"><g id="Icons"><path d="M11,0C9.33,0,8,1,8,2.22A1.86,1.86,0,0,0,8.66,3.6h0a2.32,2.32,0,0,1-.21.91l-.11.25c-.07.17,0,.4.27.33l.21,0a4.09,4.09,0,0,0,1.35-.72,3.42,3.42,0,0,0,.79.09c1.63,0,3-1,3-2.21S12.59,0,11,0Zm0,3.73a1.37,1.37,0,0,1-.29,0A2.27,2.27,0,0,1,10,3.58a5.88,5.88,0,0,1-.68.48l0,0V4a2.46,2.46,0,0,0,0-.81,1.46,1.46,0,0,1-.48-.51,1,1,0,0,1-.14-.51C8.71,1.4,9.74.7,11,.7s2.25.7,2.25,1.52S12.18,3.73,11,3.73ZM7,5.81a1.88,1.88,0,0,1,1.37.59,3.75,3.75,0,0,0,1.19-.46,1.89,1.89,0,0,1-.83,1,3.75,3.75,0,0,0,1.08-.3,3.81,3.81,0,0,1-.94,1c0,.08,0,.16,0,.24a5.31,5.31,0,0,1-5.35,5.35A5.32,5.32,0,0,1,.7,12.41l.45,0a3.77,3.77,0,0,0,2.33-.8,1.88,1.88,0,0,1-1.76-1.31,1.93,1.93,0,0,0,.35,0,1.9,1.9,0,0,0,.49-.07A1.88,1.88,0,0,1,1.07,8.45v0a1.88,1.88,0,0,0,.85.23,1.88,1.88,0,0,1-.58-2.51,5.34,5.34,0,0,0,3.87,2A1.88,1.88,0,0,1,7,5.81m0-.7A2.58,2.58,0,0,0,4.49,7.32,4.66,4.66,0,0,1,1.88,5.71a.7.7,0,0,0-.54-.26H1.28a.7.7,0,0,0-.55.35A2.59,2.59,0,0,0,.54,8a.7.7,0,0,0-.17.45A2.61,2.61,0,0,0,1,10.19a.7.7,0,0,0,0,.36,2.57,2.57,0,0,0,.73,1.13,3.13,3.13,0,0,1-.64.07l-.37,0H.7A.7.7,0,0,0,.32,13a6,6,0,0,0,3.26,1,6,6,0,0,0,6-6,4.49,4.49,0,0,0,.82-.92.7.7,0,0,0,0-.84l-.11-.11a.7.7,0,0,0-1-.79,3.05,3.05,0,0,1-.65.29A2.59,2.59,0,0,0,7,5.11Z"/></g></g></svg>
